X:526
T:The Old Head of Denis
M:6/8
L:1/8
B:O'Neill's 526
N:"With feeling"
Z:Transcribed by Dave Wooldridge
K:G
(d3/4c/4) \
|B3cBAG GED|DEG G2 A3/4B/4|cBA ABG|dBG A2 A3/4B/4|
cBA ABG|dBG BA2 G3/4A/4|BAG GED|DEG Hc2 c3/4B/4 \
|BAG GED|DEG G2||
